assets/resource-logos/alanon-alateen.svg

<?xml version="1.0" encoding="UTF-8" standalone="no"?>
<!-- Created with Inkscape (http://www.inkscape.org/) -->

<svg
   width="500"
   height="250"
   viewBox="0 0 132.29166 66.145833"
   version="1.1"
   id="svg1"
   xml:space="preserve"
   inkscape:version="1.4 (86a8ad7, 2024-10-11)"
   sodipodi:docname="alanon-alateen.svg"
   xmlns:inkscape="http://www.inkscape.org/namespaces/inkscape"
   xmlns:sodipodi="http://sodipodi.sourceforge.net/DTD/sodipodi-0.dtd"
   xmlns="http://www.w3.org/2000/svg"
   xmlns:svg="http://www.w3.org/2000/svg"><sodipodi:namedview
     id="namedview1"
     pagecolor="#ffffff"
     bordercolor="#111111"
     borderopacity="1"
     inkscape:showpageshadow="0"
     inkscape:pageopacity="0"
     inkscape:pagecheckerboard="1"
     inkscape:deskcolor="#d1d1d1"
     inkscape:document-units="px"
     inkscape:zoom="0.78573232"
     inkscape:cx="142.54218"
     inkscape:cy="229.08565"
     inkscape:window-width="1920"
     inkscape:window-height="1115"
     inkscape:window-x="-9"
     inkscape:window-y="-9"
     inkscape:window-maximized="1"
     inkscape:current-layer="layer1" /><defs
     id="defs1" /><g
     inkscape:label="Layer 1"
     inkscape:groupmode="layer"
     id="layer1"><path
       id="path20"
       style="fill:#1a32a3;fill-opacity:1;stroke-width:1.12451"
       d="M 35.454489,10.544574 7.3006515,55.581617 63.300853,55.601257 c 0,0 -27.59272,-44.820295 -27.846364,-45.05668 z M 35.30101,27.648439 A 12.567708,12.567708 0 0 1 47.868718,40.216147 12.567708,12.567708 0 0 1 35.30101,52.783855 12.567708,12.567708 0 0 1 22.733302,40.216147 12.567708,12.567708 0 0 1 35.30101,27.648439 Z" /><path
       id="path21"
       style="fill:#ff240a;fill-opacity:1;stroke-width:1.12451"
       d="m 97.741851,10.544576 -28.15384,45.037043 56.000209,0.01964 c 0,0 -27.592719,-44.820295 -27.846369,-45.05668 z m -0.15348,17.103865 A 12.567708,12.567708 0 0 1 110.15609,40.216149 12.567708,12.567708 0 0 1 97.588371,52.783857 12.567708,12.567708 0 0 1 85.020661,40.216149 12.567708,12.567708 0 0 1 97.588371,27.648441 Z" /></g></svg>

<svg xmlns="http://www.w3.org/2000/svg" xml:space="preserve" viewBox="0 0 132.292 66.146">
  <path d="M35.454 10.545 7.301 55.582l56 .02S35.708 10.78 35.454 10.544zm-.153 17.103a12.568 12.568 0 0 1 12.568 12.568A12.568 12.568 0 0 1 35.3 52.784a12.568 12.568 0 0 1-12.568-12.568 12.568 12.568 0 0 1 12.568-12.568Z" style="fill:#1a32a3;fill-opacity:1;stroke-width:1.12451"/>
  <path d="M97.742 10.545 69.588 55.582l56 .02S97.996 10.78 97.742 10.544zm-.154 17.103a12.568 12.568 0 0 1 12.568 12.568 12.568 12.568 0 0 1-12.568 12.568 12.568 12.568 0 0 1-12.567-12.568 12.568 12.568 0 0 1 12.567-12.568Z" style="fill:#ff240a;fill-opacity:1;stroke-width:1.12451"/>
</svg>
